svgs/blackhole.svg

<svg xmlns="http://www.w3.org/2000/svg" width="192" height="192" fill="none" stroke="#000" stroke-width="12" viewBox="0 0 192 192"><circle cx="96" cy="96" r="74"/><path d="M96 75.2c-11.5 0-20.8 9.3-20.8 20.8s9.3 20.8 20.8 20.8 20.8-9.3 20.8-20.8-9.3-20.8-20.8-20.8Zm0-23.1c-17.9 0-32.4 14.5-32.4 32.4s14.5 32.4 32.4 32.4 32.4-14.5 32.4-32.4S113.9 52.1 96 52.1Zm5.5-1.5c-24.3 0-43.9 19.7-43.9 43.9s19.7 43.9 43.9 43.9 43.9-19.7 43.9-43.9-19.7-43.9-43.9-43.9ZM94 48.7c-33.5 0-60.6 27.2-60.6 60.6S60.5 170 94 170s60.6-27.2 60.6-60.6S127.5 48.7 94 48.7Z"/></svg>

<svg xmlns="http://www.w3.org/2000/svg" width="192" height="192" viewBox="0 0 192 192" fill="none" stroke="#000" stroke-width="12"><circle cx="96" cy="96" r="74" /><path d="M 96 75.2 C 84.5 75.2 75.2 84.5 75.2 96 S 84.5 116.8 96 116.8 S 116.8 107.5 116.8 96 S 107.5 75.2 96 75.2 Z M 96 52.1 C 78.1 52.1 63.6 66.6 63.6 84.5 S 78.1 116.9 96 116.9 S 128.4 102.4 128.4 84.5 S 113.9 52.1 96 52.1 Z M 101.5 50.6 C 77.2 50.6 57.6 70.3 57.6 94.5 S 77.3 138.4 101.5 138.4 S 145.4 118.7 145.4 94.5 S 125.7 50.6 101.5 50.6 Z M 94 48.7 C 60.5 48.7 33.4 75.9 33.4 109.3 S 60.5 170 94 170 S 154.6 142.8 154.6 109.4 S 127.5 48.7 94 48.7 Z"/></svg>
